static/assets/images/networks/polygon-zkevm.svg

<svg xmlns="http://www.w3.org/2000/svg" fill="none" viewBox="0 0 512 512"><path fill="#6F4ADA" d="M512 256a256 256 0 0 1-74.981 181.019 255.997 255.997 0 0 1-362.038 0A256 256 0 1 1 512 256"/><path fill="#fff" d="M245.485 146.705c-6.493 3.783-10.686 11.045-11.181 19.366l.57 60.58-.738 40.458 1.036 59.773c-.03 7.514-4.223 14.776-11.182 19.366l-41.037 22.571c-6.492 3.783-15.285 4.086-22.555-.112l-40.394-23.321c-6.463-3.731-11.062-10.69-11.374-19.478l-.164-46.358c.03-7.514 4.223-14.777 11.181-19.366l41.037-22.571c6.493-3.783 15.285-4.086 22.556.111l26.66 15.392-.07-40.924-27.468-15.858c-6.463-3.731-14.789-4.235-22.555-.112l-75.24 42.632c-6.493 3.783-10.686 11.045-11.181 19.366l.575 88.557c-.495 8.321 4.104 15.28 10.567 19.011l75.939 43.844c6.463 3.731 14.789 4.235 22.556.111l75.706-43.439c6.492-3.783 10.685-11.045 11.181-19.366l-.229-59.307-.069-40.924-.228-59.307c.029-7.514 4.222-14.776 11.181-19.366l40.229-23.037c6.493-3.783 15.285-4.086 22.556.111l40.393 23.321c6.463 3.732 11.062 10.691 11.375 19.478l.629 45.552c-.029 7.514-4.222 14.777-11.181 19.366l-40.229 23.038c-6.493 3.782-15.285 4.086-22.556-.112l-25.852-14.925.07 40.924 26.66 15.392c6.462 3.731 14.789 4.235 22.555.112l75.706-43.44c6.493-3.783 10.686-11.045 11.181-19.366l-.233-87.283c.03-7.514-4.104-15.28-11.375-19.478l-76.747-44.31c-6.463-3.731-14.789-4.235-22.555-.112z"/></svg>

<svg width="512" height="512" viewBox="0 0 512 512" fill="none" xmlns="http://www.w3.org/2000/svg">
<path d="M512 256C512 323.895 485.029 389.01 437.019 437.019C389.01 485.029 323.895 512 256 512C188.105 512 122.99 485.029 74.9807 437.019C26.9714 389.01 0 323.895 0 256C0 188.105 26.9714 122.99 74.9807 74.9807C122.99 26.9714 188.105 0 256 0C323.895 0 389.01 26.9714 437.019 74.9807C485.029 122.99 512 188.105 512 256Z" fill="#6F4ADA"/>
<path d="M245.485 146.705C238.992 150.488 234.799 157.75 234.304 166.071L234.874 226.651L234.136 267.109L235.172 326.882C235.142 334.396 230.949 341.658 223.99 346.248L182.953 368.819C176.461 372.602 167.668 372.905 160.398 368.707L120.004 345.386C113.541 341.655 108.942 334.696 108.63 325.908L108.466 279.55C108.496 272.036 112.689 264.773 119.647 260.184L160.684 237.613C167.177 233.83 175.969 233.527 183.24 237.724L209.9 253.116L209.83 212.192L182.362 196.334C175.899 192.603 167.573 192.099 159.807 196.222L84.5668 238.854C78.0742 242.637 73.8813 249.899 73.3857 258.22L73.9611 346.777C73.4655 355.098 78.0649 362.057 84.5278 365.788L160.467 409.632C166.93 413.363 175.256 413.867 183.023 409.743L258.729 366.304C265.221 362.521 269.414 355.259 269.91 346.938L269.681 287.631L269.612 246.707L269.384 187.4C269.413 179.886 273.606 172.624 280.565 168.034L320.794 144.997C327.287 141.214 336.079 140.911 343.35 145.108L383.743 168.429C390.206 172.161 394.805 179.12 395.118 187.907L395.747 233.459C395.718 240.973 391.525 248.236 384.566 252.825L344.337 275.863C337.844 279.645 329.052 279.949 321.781 275.751L295.929 260.826L295.999 301.75L322.659 317.142C329.121 320.873 337.448 321.377 345.214 317.254L420.92 273.814C427.413 270.031 431.606 262.769 432.101 254.448L431.868 167.165C431.898 159.651 427.764 151.885 420.493 147.687L343.746 103.377C337.283 99.6457 328.957 99.1422 321.191 103.265L245.485 146.705Z" fill="white"/>
</svg>
